X:1
T:Since I Have Been Redeemed
T:Edwin Othello Excell, 1884
T:Since I Have Been Redeemed
T:Public Domain
T:Public Domain
T:Public Domain
C:Edwin Othello Excell, 1884
Z:Public Domain
%%score ( 1 2 ) ( 3 4 )
L:1/8
M:4/4
K:G
V:1 treble 
V:2 treble 
V:3 bass 
V:4 bass 
V:1
 D2 | [DG]3 [DA] ([GB][Ac])([Bd][ce]) | [Bd]2 [Ac]2 [GB]2 G2 | [GB]3 [GB] [DA]2 [DG]2 | %4
w: 1.~I|a song I * love *|to sing, Since I|been re- deemed, Of|
w: 2.~I|a Christ who * sa- *|tis- fies Since I|been re- deemed, To|
w: 3.~I|a wit- ness * bright *|and clear, Since I|been re- deemed, Dis-|
w: 4.~I|a home pre- * pared *|for me, Since I|been re- deemed, Where|
w: 5.~I|a joy I * can’t *|ex- press, Since I|been re- deemed, All|
 (F2 G2 A2) D2 | [DG]3 [DA] ([GB][Ac])([Bd][ce]) | [Bd]2 [Ac]2 [GB]2 [EA]2 | %7
w: my * * Re-|er, Sav- ior * king, *|Since I have been|
w: do * * His|my high- est * prize, *|Since I have been|
w: pell- * * ing|ery doubt and * fear, *|Since I have been|
w: I * * shall|e- ter- nal- * ly, *|Since I have been|
w: through * * His|and right- eous- * ness, *|Since I have been|
 [DG]3 [DG] [DA]2 [DF]2 | [DG]6 ||"^Refrain" ([GB][Ac]) | (BBGA d)dBG | (FFAG F2) ([FA][GB]) | %12
w: re- deemed. * *|||||
w: re- deemed. Since I|have|been *|re- * * * * deemed, Since I|deemed, * * * * I *|
w: re- deemed. * *|||||
w: re- deemed. * *|||||
w: re- deemed. * *|||||
 [Ac][Gc][Fc][Ec] [Dc]2 E[DF] | [DG][DG][DG][DG] [GB]2 ([GB][Ac]) | (BBGB d)dBG | %15
w: |||
w: will glor- y in His name, Since|I have been re- deemed, I *|will * * * * glor- y in|
w: |||
w: |||
w: |||
 (FFAG F2) [FA][GB] | [Fd][Ec][DB][DA] [DG]2 [DF]2 | [DG]6 |] %18
w: |||
w: name. * * * * * *|||
w: |||
w: |||
w: |||
V:2
 D2 | x8 | x6 G2 | x8 | d6 x2 | x8 | x8 | x8 | x6 || x2 | d4- B2 G2 | d6 x2 | x8 | x8 | d4- B2 G2 | %15
w: have||have||deem-|||||||||||
w: have||have||will||||||have been re-||||the Sav- ior’s|
w: have||have||ev-|||||||||||
w: have||have||dwell|||||||||||
w: have||have||blood|||||||||||
 d6 x2 | x8 | x6 |] %18
w: |||
w: |||
w: |||
w: |||
w: |||
V:3
 [G,B,]2 | [G,B,]3 [G,C] [G,D]2 [G,D]2 | [G,D]2 [D,D]2 [D,D]2 [G,B,]2 | %3
w: ~|~ ~ ~ ~|~ ~ ~ ~|
 [G,D]3 [G,D] [G,C]2 [G,B,]2 | (A,2 B,2 B,2) [D,C]2 | [G,B,]3 [G,C] [G,D]2 [G,D]2 | %6
w: ~ ~ ~ ~|~ * * ~|~ ~ ~ ~|
 [D,D]2 [D,D]2 [G,D]2 [C,C]2 | [D,B,]3 [D,B,] [D,C]2 [D,C]2 | [G,B,]6 || [G,D]2 | %10
w: ~ ~ ~ ~|~ ~ ~ ~|Since|I|
 [G,D][G,D][G,B,][G,C] [G,D]2 (DB,) | [D,A,][D,A,][D,C][D,B,] [D,A,]2 [D,D]2 | %12
w: have been re- deemed, Since I *|been re- deemed, ~ ~ ~|
 [D,D][D,D][D,D][D,D] [D,D]2 [D,C][D,C] | [G,B,][G,B,][G,C][G,C] [G,D]2 [G,D]2 | %14
w: ~ ~ ~ ~ ~ ~ ~|~ ~ ~ Since I have|
 [G,D][G,D][G,B,][G,C] [G,D]2 (DB,) | [D,A,][D,A,][D,C][D,B,] [D,A,]2 [D,D][D,D] | %16
w: been re- deemed, Since I have *|re- deemed, * * * * *|
 [D,D][D,D][D,D][D,C] [D,B,]2 (A,C) | [G,,G,B,]6 |] %18
w: ||
V:4
 x2 | x8 | x8 | x8 | D,6 x2 | x8 | x8 | x8 | x6 || x2 | x6 G,2 | x8 | x8 | x8 | x6 G,2 | x8 | %16
w: ||||~||||||have||||been||
 x6 D,2 | x6 |] %18
w: ||

